X:340
T: Creel of Perches
M: 4/4
L: 1/8
S: B.Flaherty
Z: B.Black
R: reel
K: Dmix
A2 AB AGFD|AGAB cBcA|G2 dG BGdA|BAGB AGEG|
A2 AB AGFD|AGAB cABc|d2 ef dcAB|cAGE ED D2 :|
df f2 af f2|dfaf ed^cB|AB^ce gece|ge^cA ^GABc|
df f2 af f2|dfaf ed^cB|AB^ce gfef|d^cAG FD D2 :|
